; generated by PrusaSlicer 2.2.0+linux-x64 on 2020-05-27 at 00:10:17 UTC

; 

; external perimeters extrusion width = 0.45mm
; perimeters extrusion width = 0.45mm
; infill extrusion width = 0.45mm
; solid infill extrusion width = 0.45mm
; top infill extrusion width = 0.40mm
; first layer extrusion width = 0.42mm

M73 P0 R103
M73 Q0 S106
M201 X1000 Y1000 Z1000 E5000 ; sets maximum accelerations, mm/sec^2
M203 X200 Y200 Z12 E120 ; sets maximum feedrates, mm/sec
M204 P1250 R1250 T1250 ; sets acceleration (P, T) and retract acceleration (R), mm/sec^2
M205 X8.00 Y8.00 Z0.40 E4.50 ; sets the jerk limits, mm/sec
M205 S0 T0 ; sets the minimum extruding and travel feed rate, mm/sec
M107 ; disable fan
M862.3 P "MK3S" ; printer model check
M862.1 P0.4 ; nozzle diameter check
M115 U3.8.1 ; tell printer latest fw version
G90 ; use absolute coordinates
M83 ; extruder relative mode
G28 W ; home all without mesh bed level
M140 S83 ; set bed temp
M190 S83 ; wait for bed temp
M104 S197 ;
M109 S197 ;
M104 S230 ; set extruder temp
G80 ; mesh bed leveling
; M109 S230 ; wait for extruder temp
G1 Y-3.0 F1000.0 ; go outside print area
G92 E0.0
G1 X60.0 E9.0 F1000.0 ; intro line
M73 Q0 S106
M73 P0 R103
G1 X100.0 E12.5 F1000.0 ; intro line
G92 E0.0
M221 S95
G81 ;
G21 ; set units to millimeters
G90 ; use absolute coordinates
M83 ; use relative distances for extrusion
M900 K0.12 ; Filament gcode LA 1.5
M900 K45 ; Filament gcode LA 1.0
;BEFORE_LAYER_CHANGE
G92 E0.0
;0.2


G1 E-1.40000 F2100.00000 ; retract
G1 Z0.200 F10800.000 ; lift Z
;AFTER_LAYER_CHANGE
;0.2
G1 Z0.400 ; lift Z
G1 X35.144 Y59.602 ; move to first skirt point
G1 Z0.200 ; restore layer Z
G1 E1.40000 F2100.00000 ; unretract
M204 S1000 ; adjust acceleration
G1 F1200.000
G1 X36.684 Y58.808 E0.05411 ; skirt
G1 X38.314 Y58.217 E0.05411 ; skirt
G1 X40.005 Y57.840 E0.05411 ; skirt
G1 X42.076 Y57.678 E0.06486 ; skirt
G1 X205.102 Y57.678 E5.09002 ; skirt
G1 X206.380 Y57.739 E0.03996 ; skirt
G1 X207.647 Y57.922 E0.03996 ; skirt
G1 X208.891 Y58.223 E0.03996 ; skirt
G1 X210.101 Y58.640 E0.03996 ; skirt
G1 X211.266 Y59.171 E0.03996 ; skirt
G1 X212.375 Y59.809 E0.03996 ; skirt
G1 X213.419 Y60.549 E0.03996 ; skirt
G1 X214.388 Y61.385 E0.03996 ; skirt
G1 X215.274 Y62.308 E0.03996 ; skirt
G1 X216.069 Y63.312 E0.03996 ; skirt
G1 X216.765 Y64.386 E0.03996 ; skirt
G1 X217.356 Y65.521 E0.03996 ; skirt
G1 X217.837 Y66.707 E0.03996 ; skirt
G1 X218.204 Y67.933 E0.03996 ; skirt
G1 X218.453 Y69.188 E0.03996 ; skirt
G1 X218.582 Y70.462 E0.03996 ; skirt
G1 X218.576 Y84.012 E0.42307 ; skirt
G1 X218.452 Y85.186 E0.03684 ; skirt
G1 X218.225 Y86.353 E0.03713 ; skirt
G1 X217.898 Y87.487 E0.03684 ; skirt
G1 X217.471 Y88.596 E0.03713 ; skirt
G1 X216.695 Y90.105 E0.05298 ; skirt
G1 X215.741 Y91.498 E0.05270 ; skirt
G1 X214.615 Y92.767 E0.05298 ; skirt
G1 X213.346 Y93.880 E0.05270 ; skirt
G1 X211.940 Y94.830 E0.05298 ; skirt
G1 X210.427 Y95.597 E0.05298 ; skirt
G1 X208.837 Y96.165 E0.05270 ; skirt
G1 X207.181 Y96.532 E0.05298 ; skirt
G1 X205.101 Y96.695 E0.06514 ; skirt
G1 X41.240 Y96.668 E5.11608 ; skirt
G1 X38.979 Y96.331 E0.07136 ; skirt
G1 X36.816 Y95.621 E0.07107 ; skirt
G1 X34.803 Y94.559 E0.07107 ; skirt
G1 X32.990 Y93.167 E0.07136 ; skirt
G1 X31.444 Y91.497 E0.07107 ; skirt
G1 X30.195 Y89.583 E0.07136 ; skirt
G1 X29.290 Y87.494 E0.07107 ; skirt
G1 X28.747 Y85.274 E0.07136 ; skirt
G1 X28.585 Y83.321 E0.06118 ; skirt
G1 X28.598 Y70.587 E0.39758 ; skirt
G1 X28.699 Y69.430 E0.03628 ; skirt
G1 X28.902 Y68.276 E0.03656 ; skirt
G1 X29.595 Y66.061 E0.07249 ; skirt
G1 X30.354 Y64.503 E0.05411 ; skirt
G1 X31.306 Y63.055 E0.05411 ; skirt
G1 X32.430 Y61.747 E0.05383 ; skirt
G1 X33.718 Y60.587 E0.05411 ; skirt
G1 X35.095 Y59.636 E0.05224 ; skirt
G1 F8640.000
G1 X36.684 Y58.808 E-0.41392 ; wipe and retract
G1 X38.314 Y58.217 E-0.40018 ; wipe and retract
G1 X40.005 Y57.840 E-0.40018 ; wipe and retract
G1 X40.505 Y57.801 E-0.11572 ; wipe and retract
G1 E-0.07000 F2100.00000 ; retract
G1 Z0.400 F10800.000 ; lift Z
G1 X29.263 Y68.388 ; move to first skirt point
G1 Z0.200 ; restore layer Z
G1 E1.40000 F2100.00000 ; unretract
G1 F1200.000
G1 X29.931 Y66.236 E0.07035 ; skirt
G1 X30.668 Y64.714 E0.05279 ; skirt
G1 X31.594 Y63.299 E0.05279 ; skirt
G1 X32.701 Y62.009 E0.05307 ; skirt
G1 X33.958 Y60.878 E0.05279 ; skirt
G1 X35.350 Y59.919 E0.05279 ; skirt
G1 X36.854 Y59.145 E0.05279 ; skirt
G1 X38.444 Y58.572 E0.05279 ; skirt
G1 X40.095 Y58.208 E0.05279 ; skirt
G1 X42.084 Y58.055 E0.06227 ; skirt
G1 X205.102 Y58.055 E5.08977 ; skirt
G1 X206.344 Y58.115 E0.03884 ; skirt
G1 X207.576 Y58.292 E0.03884 ; skirt
G1 X208.785 Y58.585 E0.03884 ; skirt
G1 X209.960 Y58.990 E0.03884 ; skirt
G1 X211.101 Y59.510 E0.03912 ; skirt
G1 X212.178 Y60.131 E0.03884 ; skirt
G1 X213.193 Y60.851 E0.03884 ; skirt
G1 X214.134 Y61.664 E0.03884 ; skirt
G1 X214.995 Y62.562 E0.03884 ; skirt
G1 X215.767 Y63.538 E0.03884 ; skirt
G1 X216.442 Y64.582 E0.03884 ; skirt
G1 X217.016 Y65.685 E0.03884 ; skirt
G1 X217.483 Y66.838 E0.03884 ; skirt
G1 X217.839 Y68.030 E0.03884 ; skirt
G1 X218.082 Y69.259 E0.03912 ; skirt
G1 X218.206 Y70.497 E0.03884 ; skirt
G1 X218.201 Y83.965 E0.42048 ; skirt
G1 X217.867 Y86.229 E0.07147 ; skirt
G1 X217.144 Y88.401 E0.07147 ; skirt
G1 X216.393 Y89.875 E0.05168 ; skirt
G1 X215.461 Y91.244 E0.05168 ; skirt
G1 X214.365 Y92.484 E0.05168 ; skirt
G1 X213.115 Y93.582 E0.05196 ; skirt
G1 X211.744 Y94.509 E0.05168 ; skirt
G1 X210.267 Y95.255 E0.05168 ; skirt
G1 X208.707 Y95.810 E0.05168 ; skirt
G1 X207.090 Y96.165 E0.05168 ; skirt
G1 X205.102 Y96.317 E0.06227 ; skirt
G1 X41.288 Y96.293 E5.11463 ; skirt
G1 X39.094 Y95.970 E0.06924 ; skirt
G1 X36.977 Y95.280 E0.06952 ; skirt
G1 X35.007 Y94.242 E0.06952 ; skirt
G1 X33.241 Y92.886 E0.06952 ; skirt
G1 X31.735 Y91.258 E0.06924 ; skirt
G1 X30.521 Y89.392 E0.06952 ; skirt
G1 X29.639 Y87.348 E0.06952 ; skirt
G1 X29.114 Y85.184 E0.06952 ; skirt
G1 X28.962 Y83.312 E0.05865 ; skirt
G1 X28.974 Y70.622 E0.39618 ; skirt
G1 X29.256 Y68.447 E0.06848 ; skirt
G1 X29.625 Y68.498 F10800.000 ; move to first skirt point
G1 F1200.000
G1 X30.264 Y66.417 E0.06796 ; skirt
G1 X30.978 Y64.931 E0.05148 ; skirt
G1 X31.878 Y63.549 E0.05148 ; skirt
G1 X32.948 Y62.295 E0.05148 ; skirt
G1 X34.179 Y61.185 E0.05175 ; skirt
G1 X35.535 Y60.247 E0.05148 ; skirt
G1 X37.009 Y59.489 E0.05175 ; skirt
G1 X38.569 Y58.929 E0.05175 ; skirt
G1 X40.180 Y58.576 E0.05148 ; skirt
G1 X42.087 Y58.432 E0.05972 ; skirt
G1 X205.102 Y58.432 E5.08967 ; skirt
G1 X206.309 Y58.490 E0.03773 ; skirt
G1 X207.513 Y58.664 E0.03800 ; skirt
G1 X208.687 Y58.949 E0.03773 ; skirt
G1 X209.829 Y59.344 E0.03773 ; skirt
G1 X210.937 Y59.849 E0.03800 ; skirt
G1 X211.983 Y60.453 E0.03773 ; skirt
G1 X212.968 Y61.154 E0.03773 ; skirt
G1 X213.882 Y61.944 E0.03773 ; skirt
G1 X214.717 Y62.817 E0.03773 ; skirt
G1 X215.466 Y63.765 E0.03773 ; skirt
G1 X216.126 Y64.788 E0.03800 ; skirt
G1 X216.682 Y65.861 E0.03773 ; skirt
G1 X217.137 Y66.990 E0.03800 ; skirt
G1 X217.480 Y68.148 E0.03773 ; skirt
G1 X217.712 Y69.334 E0.03773 ; skirt
G1 X217.830 Y70.536 E0.03773 ; skirt
G1 X217.826 Y83.918 E0.41781 ; skirt
G1 X217.508 Y86.107 E0.06906 ; skirt
G1 X216.817 Y88.208 E0.06906 ; skirt
G1 X216.085 Y89.656 E0.05065 ; skirt
G1 X215.180 Y90.992 E0.05038 ; skirt
G1 X214.107 Y92.209 E0.05065 ; skirt
G1 X212.896 Y93.275 E0.05038 ; skirt
G1 X211.552 Y94.184 E0.05065 ; skirt
G1 X210.112 Y94.911 E0.05038 ; skirt
G1 X208.591 Y95.451 E0.05038 ; skirt
G1 X207.006 Y95.796 E0.05065 ; skirt
G1 X205.099 Y95.940 E0.05972 ; skirt
G1 X41.326 Y95.917 E5.11335 ; skirt
M73 Q1 S105
M73 P1 R102
G1 X39.189 Y95.605 E0.06741 ; skirt
G1 X37.128 Y94.934 E0.06768 ; skirt
G1 X35.210 Y93.924 E0.06768 ; skirt
G1 X33.491 Y92.603 E0.06768 ; skirt
G1 X32.021 Y91.010 E0.06768 ; skirt
G1 X30.845 Y89.199 E0.06741 ; skirt
G1 X29.989 Y87.207 E0.06768 ; skirt
G1 X29.483 Y85.100 E0.06768 ; skirt
G1 X29.339 Y83.307 E0.05615 ; skirt
G1 X29.350 Y70.657 E0.39496 ; skirt
G1 X29.618 Y68.557 E0.06609 ; skirt
G1 X29.988 Y68.606 F10800.000 ; move to first skirt point
G1 F1200.000
G1 X30.598 Y66.596 E0.06559 ; skirt
G1 X31.294 Y65.138 E0.05044 ; skirt
G1 X32.169 Y63.790 E0.05017 ; skirt
G1 X33.216 Y62.561 E0.05044 ; skirt
G1 X34.415 Y61.478 E0.05044 ; skirt
G1 X35.738 Y60.565 E0.05017 ; skirt
G1 X37.175 Y59.828 E0.05044 ; skirt
G1 X38.688 Y59.287 E0.05017 ; skirt
G1 X40.267 Y58.945 E0.05044 ; skirt
G1 X42.085 Y58.809 E0.05694 ; skirt
G1 X205.102 Y58.809 E5.08971 ; skirt
G1 X206.273 Y58.866 E0.03662 ; skirt
G1 X207.443 Y59.034 E0.03689 ; skirt
G1 X208.582 Y59.311 E0.03662 ; skirt
G1 X209.691 Y59.695 E0.03662 ; skirt
G1 X210.766 Y60.186 E0.03689 ; skirt
G1 X211.781 Y60.772 E0.03662 ; skirt
G1 X212.737 Y61.452 E0.03662 ; skirt
G1 X213.624 Y62.219 E0.03662 ; skirt
G1 X214.441 Y63.074 E0.03689 ; skirt
G1 X215.167 Y63.995 E0.03662 ; skirt
G1 X215.802 Y64.981 E0.03662 ; skirt
G1 X216.345 Y66.030 E0.03689 ; skirt
G1 X216.782 Y67.119 E0.03662 ; skirt
G1 X217.117 Y68.252 E0.03689 ; skirt
G1 X217.341 Y69.403 E0.03662 ; skirt
G1 X217.455 Y70.571 E0.03662 ; skirt
G1 X217.451 Y83.872 E0.41531 ; skirt
G1 X217.149 Y85.986 E0.06667 ; skirt
G1 X216.488 Y88.017 E0.06667 ; skirt
G1 X215.780 Y89.430 E0.04936 ; skirt
G1 X214.897 Y90.741 E0.04936 ; skirt
G1 X213.854 Y91.929 E0.04936 ; skirt
G1 X212.668 Y92.975 E0.04936 ; skirt
G1 X211.358 Y93.860 E0.04936 ; skirt
G1 X209.955 Y94.568 E0.04908 ; skirt
G1 X208.464 Y95.095 E0.04936 ; skirt
G1 X206.919 Y95.428 E0.04936 ; skirt
G1 X205.100 Y95.563 E0.05694 ; skirt
G1 X41.363 Y95.542 E5.11222 ; skirt
G1 X39.276 Y95.238 E0.06586 ; skirt
G1 X37.270 Y94.585 E0.06586 ; skirt
G1 X35.404 Y93.600 E0.06586 ; skirt
G1 X33.739 Y92.319 E0.06559 ; skirt
G1 X32.310 Y90.768 E0.06586 ; skirt
G1 X31.164 Y88.996 E0.06586 ; skirt
G1 X30.336 Y87.056 E0.06586 ; skirt
G1 X29.851 Y85.012 E0.06559 ; skirt
G1 X29.716 Y83.289 E0.05396 ; skirt
G1 X29.726 Y70.682 E0.39362 ; skirt
G1 X29.980 Y68.666 E0.06345 ; skirt
G1 F8640.000
G1 X30.598 Y66.596 E-0.49875 ; wipe and retract
G1 X31.294 Y65.138 E-0.37302 ; wipe and retract
G1 X32.169 Y63.790 E-0.37102 ; wipe and retract
G1 X32.413 Y63.503 E-0.08721 ; wipe and retract
G1 E-0.07000 F2100.00000 ; retract
G1 Z0.400 F10800.000 ; lift Z
G1 X48.542 Y73.237 ; move to first brim point
G1 Z0.200 ; restore layer Z
G1 E1.40000 F2100.00000 ; unretract
G1 F1200.000
G1 X49.013 Y72.948 E0.01725 ; brim
G1 X49.733 Y72.735 E0.02344 ; brim
G1 X197.461 Y72.739 E4.61239 ; brim
G1 X197.925 Y72.845 E0.01486 ; brim
G1 X198.642 Y73.213 E0.02516 ; brim
G1 X198.642 Y70.869 E0.07319 ; brim
G1 X198.705 Y70.491 E0.01199 ; brim
G1 X199.065 Y69.762 E0.02538 ; brim
G1 X199.621 Y69.198 E0.02472 ; brim
G1 X200.000 Y68.954 E0.01407 ; brim
G1 X200.597 Y68.758 E0.01964 ; brim
G1 X205.552 Y68.750 E0.15469 ; brim
G1 X205.943 Y68.850 E0.01263 ; brim
G1 X206.352 Y69.043 E0.01410 ; brim
G1 X207.043 Y69.669 E0.02910 ; brim
G1 X207.355 Y70.158 E0.01810 ; brim
G1 X207.544 Y70.826 E0.02170 ; brim
G1 X207.541 Y83.534 E0.39675 ; brim
G1 X207.461 Y83.940 E0.01293 ; brim
G1 X207.083 Y84.662 E0.02546 ; brim
G1 X206.533 Y85.200 E0.02402 ; brim
G1 X206.147 Y85.438 E0.01416 ; brim
G1 X205.648 Y85.605 E0.01641 ; brim
G1 X200.778 Y85.637 E0.15206 ; brim
G1 X200.342 Y85.556 E0.01387 ; brim
G1 X199.669 Y85.214 E0.02357 ; brim
G1 X199.104 Y84.657 E0.02475 ; brim
G1 X198.851 Y84.259 E0.01472 ; brim
G1 X198.650 Y83.602 E0.02146 ; brim
G1 X198.643 Y81.155 E0.07640 ; brim
G1 X198.294 Y81.365 E0.01272 ; brim
G1 X197.457 Y81.637 E0.02749 ; brim
G1 X49.733 Y81.637 E4.61226 ; brim
G1 X49.013 Y81.425 E0.02343 ; brim
G1 X48.544 Y81.137 E0.01719 ; brim
G1 X48.544 Y83.504 E0.07389 ; brim
G1 X48.462 Y83.938 E0.01379 ; brim
G1 X48.121 Y84.610 E0.02353 ; brim
G1 X47.597 Y85.149 E0.02348 ; brim
G1 X47.188 Y85.418 E0.01527 ; brim
G1 X46.654 Y85.604 E0.01768 ; brim
G1 X41.777 Y85.637 E0.15225 ; brim
G1 X41.447 Y85.589 E0.01043 ; brim
G1 X40.717 Y85.248 E0.02515 ; brim
G1 X40.130 Y84.690 E0.02529 ; brim
G1 X39.831 Y84.215 E0.01752 ; brim
G1 X39.642 Y83.546 E0.02170 ; brim
G1 X39.644 Y70.837 E0.39680 ; brim
G1 X39.708 Y70.480 E0.01132 ; brim
G1 X40.069 Y69.756 E0.02526 ; brim
G1 X40.623 Y69.196 E0.02458 ; brim
G1 X41.040 Y68.934 E0.01538 ; brim
G1 X41.538 Y68.767 E0.01640 ; brim
G1 X46.549 Y68.749 E0.15644 ; brim
G1 X46.944 Y68.851 E0.01273 ; brim
G1 X47.449 Y69.110 E0.01772 ; brim
G1 X48.075 Y69.706 E0.02700 ; brim
G1 X48.334 Y70.113 E0.01506 ; brim
G1 X48.535 Y70.771 E0.02148 ; brim
G1 X48.542 Y73.177 E0.07514 ; brim
G1 F8640.000
G1 X49.013 Y72.948 E-0.12092 ; wipe and retract
G1 X49.733 Y72.735 E-0.17334 ; wipe and retract
G1 X54.219 Y72.735 E-1.03575 ; wipe and retract
G1 E-0.07000 F2100.00000 ; retract
G1 Z0.400 F10800.000 ; lift Z
G1 X48.168 Y74.195 ; move to first brim point
G1 Z0.200 ; restore layer Z
G1 E1.40000 F2100.00000 ; unretract
G1 F1200.000
G1 X48.841 Y73.505 E0.03009 ; brim
G1 X49.153 Y73.299 E0.01169 ; brim
G1 X49.762 Y73.112 E0.01989 ; brim
G1 X197.438 Y73.116 E4.61076 ; brim
G1 X197.813 Y73.205 E0.01202 ; brim
G1 X198.283 Y73.454 E0.01661 ; brim
G1 X199.019 Y74.187 E0.03243 ; brim
G1 X199.019 Y70.882 E0.10317 ; brim
G1 X199.058 Y70.626 E0.00809 ; brim
G1 X199.357 Y70.003 E0.02156 ; brim
G1 X199.874 Y69.479 E0.02300 ; brim
G1 X200.181 Y69.285 E0.01136 ; brim
G1 X200.629 Y69.135 E0.01474 ; brim
G1 X205.527 Y69.127 E0.15293 ; brim
G1 X205.797 Y69.198 E0.00873 ; brim
G1 X206.164 Y69.372 E0.01267 ; brim
G1 X206.769 Y69.929 E0.02569 ; brim
G1 X207.001 Y70.291 E0.01341 ; brim
G1 X207.167 Y70.854 E0.01834 ; brim
G1 X207.164 Y83.517 E0.39536 ; brim
G1 X207.112 Y83.795 E0.00882 ; brim
G1 X206.795 Y84.417 E0.02180 ; brim
G1 X206.313 Y84.893 E0.02116 ; brim
G1 X206.005 Y85.088 E0.01140 ; brim
G1 X205.557 Y85.238 E0.01473 ; brim
G1 X200.793 Y85.260 E0.14875 ; brim
G1 X200.482 Y85.205 E0.00984 ; brim
G1 X199.911 Y84.923 E0.01990 ; brim
G1 X199.385 Y84.405 E0.02304 ; brim
G1 X199.185 Y84.082 E0.01189 ; brim
G1 X199.027 Y83.573 E0.01664 ; brim
G1 X199.018 Y80.194 E0.10547 ; brim
G1 X198.345 Y80.868 E0.02972 ; brim
G1 X198.137 Y81.020 E0.00805 ; brim
G1 X197.425 Y81.260 E0.02345 ; brim
G1 X49.762 Y81.260 E4.61036 ; brim
M73 Q2 S104
M73 P2 R101
G1 X49.153 Y81.074 E0.01988 ; brim
G1 X48.844 Y80.870 E0.01157 ; brim
G1 X48.167 Y80.193 E0.02989 ; brim
G1 X48.167 Y83.488 E0.10287 ; brim
G1 X48.112 Y83.797 E0.00979 ; brim
G1 X47.830 Y84.369 E0.01992 ; brim
G1 X47.342 Y84.870 E0.02183 ; brim
G1 X47.002 Y85.089 E0.01263 ; brim
G1 X46.618 Y85.227 E0.01273 ; brim
G1 X41.790 Y85.260 E0.15074 ; brim
G1 X41.533 Y85.221 E0.00813 ; brim
G1 X40.910 Y84.922 E0.02158 ; brim
G1 X40.410 Y84.435 E0.02179 ; brim
G1 X40.185 Y84.082 E0.01308 ; brim
G1 X40.019 Y83.518 E0.01834 ; brim
G1 X40.021 Y70.855 E0.39536 ; brim
G1 X40.074 Y70.578 E0.00882 ; brim
G1 X40.390 Y69.956 E0.02180 ; brim
G1 X40.873 Y69.479 E0.02116 ; brim
G1 X41.181 Y69.285 E0.01140 ; brim
G1 X41.629 Y69.135 E0.01474 ; brim
G1 X46.482 Y69.121 E0.15151 ; brim
G1 X46.797 Y69.199 E0.01014 ; brim
G1 X47.210 Y69.403 E0.01439 ; brim
G1 X47.796 Y69.962 E0.02529 ; brim
G1 X48.001 Y70.291 E0.01209 ; brim
G1 X48.158 Y70.800 E0.01664 ; brim
G1 X48.168 Y74.135 E0.10414 ; brim
G1 F8640.000
G1 X48.841 Y73.505 E-0.21284 ; wipe and retract
G1 X49.153 Y73.299 E-0.08643 ; wipe and retract
G1 X49.762 Y73.112 E-0.14706 ; wipe and retract
G1 X53.589 Y73.112 E-0.88366 ; wipe and retract
G1 E-0.07000 F2100.00000 ; retract
G1 Z0.400 F10800.000 ; lift Z
G1 X199.426 Y70.716 ; move to first brim point
G1 Z0.200 ; restore layer Z
G1 E1.40000 F2100.00000 ; unretract
G1 F1200.000
G1 X199.680 Y70.199 E0.01798 ; brim
G1 X200.096 Y69.784 E0.01834 ; brim
G1 X200.332 Y69.631 E0.00879 ; brim
G1 X200.664 Y69.512 E0.01103 ; brim
G1 X205.458 Y69.498 E0.14968 ; brim
G1 X205.653 Y69.547 E0.00628 ; brim
G1 X205.975 Y69.699 E0.01111 ; brim
G1 X206.494 Y70.188 E0.02223 ; brim
G1 X206.649 Y70.428 E0.00895 ; brim
G1 X206.790 Y70.884 E0.01489 ; brim
G1 X206.790 Y83.474 E0.39310 ; brim
G1 X206.760 Y83.656 E0.00577 ; brim
G1 X206.506 Y84.173 E0.01798 ; brim
G1 X206.090 Y84.589 E0.01834 ; brim
G1 X205.854 Y84.742 E0.00879 ; brim
G1 X205.521 Y84.861 E0.01103 ; brim
